icon/icon_weather/night_snow_thunder.svg

<?xml version="1.0" encoding="utf-8"?>
<!-- Generator: Adobe Illustrator 19.0.0, SVG Export Plug-In . SVG Version: 6.00 Build 0)  -->
<svg version="1.1" id="Layer_1" xmlns="http://www.w3.org/2000/svg" xmlns:xlink="http://www.w3.org/1999/xlink" x="0px" y="0px"
	 viewBox="0 0 512 512" style="enable-background:new 0 0 512 512;" xml:space="preserve">
<style type="text/css">
	.st0{fill:#FFF200;}
	.st1{fill:#F2F2F2;}
	.st2{fill:#FCEE23;}
</style>
<g id="XMLID_80_">
	<path id="XMLID_83_" class="st0" d="M41.3,220.3c3.3-2.6,6.7-5,10.3-7.2c-8.5-7.7-16-16.6-21.9-26.7c11.3,3.5,23,5.4,35,5.7
		c69,1.3,126.2-53.7,127.5-122.7c0.2-12-1.2-23.8-4.3-35.2c32.3,20.7,52.2,56.8,51.9,95.9c4.1-0.9,8.2-1.6,12.3-2.2
		c-0.5-48.2-28.6-92-72.6-112.3l-14.4-6.7l6.1,14.6c6,14.5,9,29.8,8.7,45.6c-1.2,62.2-52.8,111.9-115,110.7
		c-15.8-0.3-31-3.8-45.2-10.4l-14.4-6.7l6.1,14.6C18.4,193.9,28.7,208.5,41.3,220.3z"/>
</g>
<g id="XMLID_18_">
	<g id="XMLID_46_">
		<g id="XMLID_49_">
			<path id="XMLID_52_" class="st1" d="M410.4,200.1c-10.4,0-20.7,1.8-30.5,5.4c-25.1-45.7-72.1-74-123.9-74
				c-51.7,0-98.8,28.2-123.9,74c-9.9-3.6-20.1-5.4-30.5-5.4c-49.8,0-90.3,40.5-90.3,90.3s40.5,90.3,90.3,90.3
				c11.8,0,23.4-2.3,34.2-6.8v-10c-10.7,5-22.3,7.7-34.2,7.7c-44.8,0-81.2-36.4-81.2-81.2s36.4-81.2,81.2-81.2
				c10.6,0,21,2.1,30.9,6.2l3.9,1.6l1.9-3.7c23-44.8,68.1-72.7,117.7-72.7s94.7,27.8,117.7,72.7l1.9,3.7l3.9-1.6
				c9.9-4.1,20.3-6.2,30.9-6.2c44.8,0,81.2,36.4,81.2,81.2s-36.4,81.2-81.2,81.2c-11.9,0-23.5-2.6-34.2-7.7v10
				c10.8,4.5,22.4,6.8,34.2,6.8c49.8,0,90.3-40.5,90.3-90.3S460.2,200.1,410.4,200.1z"/>
			<g id="XMLID_50_">
				<path id="XMLID_51_" class="st1" d="M410.4,194.6c-11,0.2-21.6,2-32,5.6c2.1,0.8,4.1,1.7,6.2,2.5c-26-46.5-75-76.7-128.6-76.7
					s-102.6,30.2-128.6,76.7c2.1-0.8,4.1-1.7,6.2-2.5C85.9,183.9,32.8,207,13.2,253.7C-5,297.2,12.4,348.9,53,372.9
					c25.6,15.1,56.8,17.2,84.3,6.3c2.3-0.9,4-2.7,4-5.3c0-3.3,0-6.7,0-10c0-4.5-4.6-6.4-8.2-4.7c-51.6,23.1-110.6-17.3-107-73.8
					c1.5-24.6,15.6-47.3,36.7-59.9c22.6-13.6,48.3-13,72.2-3.2c2.1,0.9,5.2-0.6,6.2-2.5C163.6,175.9,205.8,146,256,146
					s92.4,29.8,114.9,73.7c1,1.9,4.1,3.4,6.2,2.5c23.9-9.9,49.6-10.4,72.2,3.2c21.1,12.6,35.2,35.4,36.7,59.9
					c3.5,56.5-55.5,96.9-107,73.8c-3.7-1.6-8.2,0.2-8.2,4.7c0,3.3,0,6.7,0,10c0,2.6,1.7,4.4,4,5.3c43.6,17.2,94.2,0.3,118.2-40.1
					c22.4-37.9,15.4-87.8-16.5-118.1C458.5,204,435,194.9,410.4,194.6c-7-0.1-7.1,10.9,0,10.9c51.3,0.7,92.3,47.1,83.8,98.5
					c-8.9,54.1-66.3,84.3-116.5,64.6c1.3,1.8,2.7,3.5,4,5.3c0-3.3,0-6.7,0-10c-2.7,1.6-5.5,3.2-8.2,4.7c44.4,19.9,97.4,1,116.7-44.5
					c17.6-41.3-0.5-90.9-40.6-111.1c-24.1-12.2-50.8-11.6-75.5-1.4c2.1,0.8,4.1,1.7,6.2,2.5C356.1,166.9,309.9,135,256,135
					s-100.1,31.9-124.3,79.1c2.1-0.8,4.1-1.7,6.2-2.5C95,194,44.7,209.3,23.8,252.3c-19.7,40.5-4.5,90.6,34.4,113.2
					c24.8,14.4,54.4,14.8,80.3,3.2c-2.7-1.6-5.5-3.2-8.2-4.7c0,3.3,0,6.7,0,10c1.3-1.8,2.7-3.5,4-5.3c-54.8,21.6-116.7-17-117.6-77
					c-0.8-59.3,58.7-99.9,113.9-81c2.2,0.8,5.1-0.5,6.2-2.5C161,165,206.1,136.9,256,136.9s94.9,28,119.1,71.3
					c1.1,2,3.9,3.3,6.2,2.5c9.5-3.2,19-5,29.1-5.2C417.5,205.4,417.5,194.5,410.4,194.6z"/>
			</g>
		</g>
	</g>
</g>
<g id="XMLID_135_">
	<path id="XMLID_139_" class="st1" d="M199,376.4h-2.6c-1.1,0-1.9-0.9-1.9-1.9v-46.2c0-1.1,0.9-1.9,1.9-1.9h2.6
		c1.1,0,1.9,0.9,1.9,1.9v46.2C200.9,375.6,200.1,376.4,199,376.4z"/>
	<path id="XMLID_138_" class="st1" d="M172.7,352.7v-2.6c0-1.1,0.9-1.9,1.9-1.9h46.2c1.1,0,1.9,0.9,1.9,1.9v2.6
		c0,1.1-0.9,1.9-1.9,1.9h-46.2C173.6,354.6,172.7,353.8,172.7,352.7z"/>
	<path id="XMLID_137_" class="st1" d="M180.9,370l-1.9-1.9c-0.7-0.7-0.7-2,0-2.7l32.6-32.6c0.7-0.7,2-0.7,2.7,0l1.9,1.9
		c0.7,0.7,0.7,2,0,2.7L183.7,370C182.9,370.8,181.7,370.8,180.9,370z"/>
	<path id="XMLID_136_" class="st1" d="M179.1,334.7l1.9-1.9c0.7-0.7,2-0.7,2.7,0l32.6,32.6c0.7,0.7,0.7,2,0,2.7l-1.9,1.9
		c-0.7,0.7-2,0.7-2.7,0l-32.6-32.6C178.3,336.6,178.3,335.4,179.1,334.7z"/>
</g>
<g id="XMLID_1_">
	<path id="XMLID_5_" class="st1" d="M315.2,376.4h-2.6c-1.1,0-1.9-0.9-1.9-1.9v-46.2c0-1.1,0.9-1.9,1.9-1.9h2.6
		c1.1,0,1.9,0.9,1.9,1.9v46.2C317.1,375.6,316.2,376.4,315.2,376.4z"/>
	<path id="XMLID_4_" class="st1" d="M288.9,352.7v-2.6c0-1.1,0.9-1.9,1.9-1.9H337c1.1,0,1.9,0.9,1.9,1.9v2.6c0,1.1-0.9,1.9-1.9,1.9
		h-46.2C289.7,354.6,288.9,353.8,288.9,352.7z"/>
	<path id="XMLID_3_" class="st1" d="M297.1,370l-1.9-1.9c-0.7-0.7-0.7-2,0-2.7l32.6-32.6c0.7-0.7,2-0.7,2.7,0l1.9,1.9
		c0.7,0.7,0.7,2,0,2.7L299.8,370C299.1,370.8,297.9,370.8,297.1,370z"/>
	<path id="XMLID_2_" class="st1" d="M295.3,334.7l1.9-1.9c0.7-0.7,2-0.7,2.7,0l32.6,32.6c0.7,0.7,0.7,2,0,2.7l-1.9,1.9
		c-0.7,0.7-2,0.7-2.7,0l-32.6-32.6C294.5,336.6,294.5,335.4,295.3,334.7z"/>
</g>
<g id="XMLID_144_">
	<path id="XMLID_182_" class="st2" d="M278.1,387l-62.9-77.8l28.3-8.2l-9.7-59.9l62.9,77.8l-28.3,8.2L278.1,387z M226.9,312.8
		l40.5,50.1l-6.6-40.7l24.3-7l-40.5-50.1l6.6,40.7L226.9,312.8z"/>
</g>
</svg>

<svg width="512" height="512" viewBox="0 0 512 512" fill="none" xmlns="http://www.w3.org/2000/svg">
<path d="M41.3 220.3C44.6 217.7 48 215.3 51.6 213.1C43.1 205.4 35.6 196.5 29.7 186.4C41 189.9 52.7 191.8 64.7 192.1C133.7 193.4 190.9 138.4 192.2 69.4C192.4 57.4 191 45.6 187.9 34.2C220.2 54.9 240.1 91 239.8 130.1C243.9 129.2 248 128.5 252.1 127.9C251.6 79.7 223.5 35.9 179.5 15.6L165.1 8.89999L171.2 23.5C177.2 38 180.2 53.3 179.9 69.1C178.7 131.3 127.1 181 64.9 179.8C49.1 179.5 33.9 176 19.7 169.4L5.29999 162.7L11.4 177.3C18.4 193.9 28.7 208.5 41.3 220.3Z" fill="#FFF200"/>
<path d="M410.4 200.1C400 200.1 389.7 201.9 379.9 205.5C354.8 159.8 307.8 131.5 256 131.5C204.3 131.5 157.2 159.7 132.1 205.5C122.2 201.9 112 200.1 101.6 200.1C51.8 200.1 11.3 240.6 11.3 290.4C11.3 340.2 51.8 380.7 101.6 380.7C113.4 380.7 125 378.4 135.8 373.9V363.9C125.1 368.9 113.5 371.6 101.6 371.6C56.8 371.6 20.4 335.2 20.4 290.4C20.4 245.6 56.8 209.2 101.6 209.2C112.2 209.2 122.6 211.3 132.5 215.4L136.4 217L138.3 213.3C161.3 168.5 206.4 140.6 256 140.6C305.6 140.6 350.7 168.4 373.7 213.3L375.6 217L379.5 215.4C389.4 211.3 399.8 209.2 410.4 209.2C455.2 209.2 491.6 245.6 491.6 290.4C491.6 335.2 455.2 371.6 410.4 371.6C398.5 371.6 386.9 369 376.2 363.9V373.9C387 378.4 398.6 380.7 410.4 380.7C460.2 380.7 500.7 340.2 500.7 290.4C500.7 240.6 460.2 200.1 410.4 200.1Z" fill="#B0B5B5"/>
<path d="M410.4 194.6C399.4 194.8 388.8 196.6 378.4 200.2C380.5 201 382.5 201.9 384.6 202.7C358.6 156.2 309.6 126 256 126C202.4 126 153.4 156.2 127.4 202.7C129.5 201.9 131.5 201 133.6 200.2C85.9 183.9 32.8 207 13.2 253.7C-4.99999 297.2 12.4 348.9 53 372.9C78.6 388 109.8 390.1 137.3 379.2C139.6 378.3 141.3 376.5 141.3 373.9C141.3 370.6 141.3 367.2 141.3 363.9C141.3 359.4 136.7 357.5 133.1 359.2C81.5 382.3 22.5 341.9 26.1 285.4C27.6 260.8 41.7 238.1 62.8 225.5C85.4 211.9 111.1 212.5 135 222.3C137.1 223.2 140.2 221.7 141.2 219.8C163.6 175.9 205.8 146 256 146C306.2 146 348.4 175.8 370.9 219.7C371.9 221.6 375 223.1 377.1 222.2C401 212.3 426.7 211.8 449.3 225.4C470.4 238 484.5 260.8 486 285.3C489.5 341.8 430.5 382.2 379 359.1C375.3 357.5 370.8 359.3 370.8 363.8C370.8 367.1 370.8 370.5 370.8 373.8C370.8 376.4 372.5 378.2 374.8 379.1C418.4 396.3 469 379.4 493 339C515.4 301.1 508.4 251.2 476.5 220.9C458.5 204 435 194.9 410.4 194.6C403.4 194.5 403.3 205.5 410.4 205.5C461.7 206.2 502.7 252.6 494.2 304C485.3 358.1 427.9 388.3 377.7 368.6C379 370.4 380.4 372.1 381.7 373.9C381.7 370.6 381.7 367.2 381.7 363.9C379 365.5 376.2 367.1 373.5 368.6C417.9 388.5 470.9 369.6 490.2 324.1C507.8 282.8 489.7 233.2 449.6 213C425.5 200.8 398.8 201.4 374.1 211.6C376.2 212.4 378.2 213.3 380.3 214.1C356.1 166.9 309.9 135 256 135C202.1 135 155.9 166.9 131.7 214.1C133.8 213.3 135.8 212.4 137.9 211.6C95 194 44.7 209.3 23.8 252.3C4.10001 292.8 19.3 342.9 58.2 365.5C83 379.9 112.6 380.3 138.5 368.7C135.8 367.1 133 365.5 130.3 364C130.3 367.3 130.3 370.7 130.3 374C131.6 372.2 133 370.5 134.3 368.7C79.5 390.3 17.6 351.7 16.7 291.7C15.9 232.4 75.4 191.8 130.6 210.7C132.8 211.5 135.7 210.2 136.8 208.2C161 165 206.1 136.9 256 136.9C305.9 136.9 350.9 164.9 375.1 208.2C376.2 210.2 379 211.5 381.3 210.7C390.8 207.5 400.3 205.7 410.4 205.5C417.5 205.4 417.5 194.5 410.4 194.6Z" fill="#B0B5B5"/>
<path d="M199 376.4H196.4C195.3 376.4 194.5 375.5 194.5 374.5V328.3C194.5 327.2 195.4 326.4 196.4 326.4H199C200.1 326.4 200.9 327.3 200.9 328.3V374.5C200.9 375.6 200.1 376.4 199 376.4Z" fill="#B0B5B5"/>
<path d="M172.7 352.7V350.1C172.7 349 173.6 348.2 174.6 348.2H220.8C221.9 348.2 222.7 349.1 222.7 350.1V352.7C222.7 353.8 221.8 354.6 220.8 354.6H174.6C173.6 354.6 172.7 353.8 172.7 352.7Z" fill="#B0B5B5"/>
<path d="M180.9 370L179 368.1C178.3 367.4 178.3 366.1 179 365.4L211.6 332.8C212.3 332.1 213.6 332.1 214.3 332.8L216.2 334.7C216.9 335.4 216.9 336.7 216.2 337.4L183.7 370C182.9 370.8 181.7 370.8 180.9 370Z" fill="#B0B5B5"/>
<path d="M179.1 334.7L181 332.8C181.7 332.1 183 332.1 183.7 332.8L216.3 365.4C217 366.1 217 367.4 216.3 368.1L214.4 370C213.7 370.7 212.4 370.7 211.7 370L179.1 337.4C178.3 336.6 178.3 335.4 179.1 334.7Z" fill="#B0B5B5"/>
<path d="M315.2 376.4H312.6C311.5 376.4 310.7 375.5 310.7 374.5V328.3C310.7 327.2 311.6 326.4 312.6 326.4H315.2C316.3 326.4 317.1 327.3 317.1 328.3V374.5C317.1 375.6 316.2 376.4 315.2 376.4Z" fill="#B0B5B5"/>
<path d="M288.9 352.7V350.1C288.9 349 289.8 348.2 290.8 348.2H337C338.1 348.2 338.9 349.1 338.9 350.1V352.7C338.9 353.8 338 354.6 337 354.6H290.8C289.7 354.6 288.9 353.8 288.9 352.7Z" fill="#B0B5B5"/>
<path d="M297.1 370L295.2 368.1C294.5 367.4 294.5 366.1 295.2 365.4L327.8 332.8C328.5 332.1 329.8 332.1 330.5 332.8L332.4 334.7C333.1 335.4 333.1 336.7 332.4 337.4L299.8 370C299.1 370.8 297.9 370.8 297.1 370Z" fill="#B0B5B5"/>
<path d="M295.3 334.7L297.2 332.8C297.9 332.1 299.2 332.1 299.9 332.8L332.5 365.4C333.2 366.1 333.2 367.4 332.5 368.1L330.6 370C329.9 370.7 328.6 370.7 327.9 370L295.3 337.4C294.5 336.6 294.5 335.4 295.3 334.7Z" fill="#B0B5B5"/>
<path d="M278.1 387L215.2 309.2L243.5 301L233.8 241.1L296.7 318.9L268.4 327.1L278.1 387ZM226.9 312.8L267.4 362.9L260.8 322.2L285.1 315.2L244.6 265.1L251.2 305.8L226.9 312.8Z" fill="#FCEE23"/>
</svg>
